markets/FTSE.svg

<svg width="42" height="42" viewBox="0 0 42 42" fill="none" xmlns="http://www.w3.org/2000/svg">
<g clip-path="url(#clip0_7277_57511)">
<path d="M20.9999 -0.0444336C32.6225 -0.0444336 42.0444 9.3775 42.0444 20.9991C42.0444 32.6216 32.6225 42.0445 20.9999 42.0445C9.37835 42.0445 -0.0435791 32.6216 -0.0435791 20.9991C-0.0435791 9.3775 9.37835 -0.0444336 20.9999 -0.0444336Z" fill="#FEFEFE"/>
<path d="M13.9488 13.5657V1.16717C9.93066 2.59665 6.47559 5.21347 4.00366 8.59171L13.9488 13.5657ZM13.9488 28.4343V40.8328C9.9326 39.4033 6.47851 36.7885 4.00463 33.4083L13.9488 28.4343ZM28.0053 28.4343V40.8493C32.0361 39.4267 35.5018 36.8099 37.9835 33.4258L28.0053 28.4343ZM28.0053 13.5657V1.15063C32.0361 2.57331 35.5038 5.19013 37.9845 8.57518L28.0053 13.5657Z" fill="#012169"/>
<path d="M39.6999 28.0171H35.0215L39.8205 30.421C40.1326 29.7977 40.4146 29.1568 40.6655 28.5004L39.6999 28.0171ZM38.7916 9.75869L30.3878 13.9723H35.0662L39.8263 11.5898C39.5122 10.9616 39.166 10.3499 38.7916 9.75869ZM16.7611 25.2068V41.6167C18.1303 41.8957 19.5481 42.0445 20.9999 42.0445C22.4352 42.0445 23.8385 41.8996 25.194 41.6264V25.2068H41.6224C41.8976 23.8473 42.0444 22.4412 42.0444 20.9991C42.0444 19.5521 41.8976 18.1382 41.6195 16.7719H25.194V0.374687C23.8135 0.0956147 22.4084 -0.0447897 20.9999 -0.0444329C19.5481 -0.0444329 18.1303 0.105322 16.7611 0.383439V16.7719H0.381376C0.0983872 18.1632 -0.0439807 19.5793 -0.0435783 20.9991C-0.0435783 22.4412 0.10326 23.8473 0.378459 25.2068H16.7611ZM2.24359 13.983H6.92198L2.16774 11.6024C1.85656 12.2258 1.57358 12.8685 1.32367 13.524L2.24359 13.983ZM11.5663 28.0278H6.88794L2.16482 30.3918C2.4803 31.0228 2.82725 31.6375 3.20436 32.2336L11.6091 28.0278H11.5663Z" fill="#C8102E"/>
</g>
<defs>
<clipPath id="clip0_7277_57511">
<rect width="42" height="42" fill="white"/>
</clipPath>
</defs>
</svg>

<svg xmlns="http://www.w3.org/2000/svg" width="42" height="42" fill="none"><g clip-path="url(#a)"><path fill="#FEFEFE" d="M21-.044c11.623 0 21.044 9.421 21.044 21.043 0 11.623-9.421 21.046-21.044 21.046-11.622 0-21.044-9.423-21.044-21.046C-.044 9.378 9.378-.044 21-.044Z"/><path fill="#012169" d="M13.949 13.566V1.167a21.114 21.114 0 0 0-9.945 7.425l9.945 4.974Zm0 14.868v12.399a21.118 21.118 0 0 1-9.944-7.425l9.944-4.974Zm14.056 0V40.85a21.104 21.104 0 0 0 9.979-7.423l-9.979-4.992Zm0-14.868V1.15a21.099 21.099 0 0 1 9.98 7.424l-9.98 4.99Z"/><path fill="#C8102E" d="M39.7 28.017h-4.678l4.799 2.404c.312-.623.594-1.264.845-1.92l-.966-.484ZM38.792 9.76l-8.404 4.213h4.678l4.76-2.382a20.87 20.87 0 0 0-1.034-1.831Zm-22.03 15.448v16.41a21.215 21.215 0 0 0 8.432.01v-16.42h16.428a21.184 21.184 0 0 0-.002-8.435H25.194V.375a21.14 21.14 0 0 0-8.433.008v16.389H.381a21.178 21.178 0 0 0-.003 8.435h16.383ZM2.243 13.983h4.678l-4.754-2.38a21.291 21.291 0 0 0-.844 1.921l.92.459Zm9.322 14.045H6.888l-4.723 2.364c.315.63.662 1.245 1.04 1.842l8.404-4.206h-.043Z"/></g><defs><clipPath id="a"><path fill="#fff" d="M0 0h42v42H0z"/></clipPath></defs></svg>
